public/avatar/hat/130.svg

<svg xmlns:xlink="http://www.w3.org/1999/xlink" height="92.9" width="100.7" xmlns="http://www.w3.org/2000/svg"><use height="17" transform="translate(26.1 42.2)" width="25" xlink:href="#a"/><defs><g id="a"><path d="M7.95 4.9q1.1 0 1.95 1.55L10.8 8q0 .65-1 .65L8.25 8.5l-1.65.05-1.05.2q-1.55 0-1.8-.55l-.7.25-.35.1-.15.15q-.8.75-1.5.75-1.15 0-1.5-.35l-.9.2-1.4-.35-1.15.35-.75-.2-1.2.1q-1.4 0-1.35-.7l-1.9.5q-1.35 0-1.15-.75l.75-1.45v-.05l-.1-.95.75-1.65 1.15-.7L-6.55 3l3.05-.05 7.35.5 2.95.9q.35.05 1 .6l.15-.05m-7.5.85.7.4.45-.1-.05-.4q0-.65.6-.65.8.95 1.25.95l.95-.2q.65 0 .85.45h1.2l.1-.5-2.2-.9-10.5-.6q-.45 0-1.15.55l-.6.65q.85.85 1.45.85.6-.5 1.1-.5.6 0 .8.45l1.2.3q.5-.75 1.05-.75l1.05.35.75-.6.65.35.35-.1" fill="#0a0100" fill-opacity=".314" fill-rule="evenodd" transform="translate(12.55 7.55)"/><path d="M.55-7.55 1.1-7l.25 1.6.05.1q.35-1.25.6-1.6.35-.5.9-.25.5.2.45.75v.1l.05.25h.2l.05-.25q.1-.5.65-.6.4.25.75.45L6.2-4l.1-.05q.1-.4.35-.45l.2-.1.05-.3v-.35q0-.55.55-.7.6-.2.85.35l.85 1.85L9.7-4l.05-.25L9.6-5q-.15-.2-.15-.45 0-.35.3-.6l1 .1.05.05v.05q1.65 2.05 1.65 4.05 0 1.95-1.6 3.45L10.2 3.3l.2.3-.3.65-.35.2.6 1.05.1.35-.15.45q-.25.4-.75.3l-2.9-.65-.8.7-.65.15-1.3-.35-.8.65-.65.15-.5-.4-.2-.4L1 7.2q-.2.3-.65.2L-.2 7l-.1-.25-.65.4-.6.1-.35-.3-.9.55q-.55.3-.9-.15l-.1-.1-.3.45q-.15.35-.6.35-.3-.15-.65-.35l-.55-.8-.95.45-.75-.05-.2-.35-.2.1-.75.05q-.4-.15-.4-.65l-.05-.3-1.45.3q-.55.1-.8-.4l-.1-.35.2-.5.15-.15-.3-.25-.25-.55v-.2q.2-.5.6-.55l.25-.05-.15-.1q-.4-.25-.4-.65 0-.45.35-.65l.2-.15-.1-.45q-1.55-1.55-1.55-3.4 0-1.95 1.65-4.05l.05-.05h-.05l.05-.05 1.05-.1.25.6-.1.45q-.2 0-.2.75l.25 1.35 1.2-2.7q.25-.5.8-.3.5.05.6.7l.05.75.75.5 1.05-2.2q.25-.45.75-.45.55.1.65.6l.3-.05v-.1q0-.5.45-.7.65-.25.9.25l.55 1.45.15-.35.2-1.2q.1-.55.55-.55l.45.05.75-.2" fill="#4b0000" fill-rule="evenodd" transform="translate(12.55 7.55)"/><path d="m3.7-3.15.65-3 2.4 5q.6-1.1.25-2.75 3.1 2.75 3.25 4.25.1 1.5-.9 2.9-.75.35-8.9-.1l-9.1-.8q-5.6-3.15-1.6-7.95l-.35 1.15q0 1.65 1.45 4.05-.6-1.7 1.4-5-.15 2 2.25 4.65l1.85-4.65q-.4 1.75 1.9 3.25-.15-2.1 2.1-4.75.5 3.65 1.15 5.75L2.6-6.5l1.1 3.35" fill="#e84900" fill-rule="evenodd" transform="translate(12.55 7.55)"/><path d="M-.45-6.75Q1.8-4.1 1.65-2q2.3-1.5 1.9-3.25Q4.4-4.5 5.4-.6q2.4-2.65 2.25-4.65 2 3.3 1.4 5 2.25-3.7 1.2-5.15 3.85 4.8-1.7 7.9l-9.1.8q-8.15.45-8.9.1-1-1.4-.9-2.9.1-.95 1.7-2.7l1.55-1.55Q-7.45-2.1-6.85-1l2.4-5 .65 3q1.25-2.85 1.1-3.35.6 1 1.1 5.35.65-2.1 1.15-5.75" fill="#edae00" fill-rule="evenodd" transform="translate(12.55 7.55)"/><path d="M-8-4.25Q-3.65-2.7-4.5.95q-.75-3-3.5-5.2m8.25.9q1-.9 2.35-1.2Q-.3-2.3-.15 1.15q-1.65-2.8.4-4.5" fill="#ff4900" fill-rule="evenodd" transform="translate(12.55 7.55)"/><path d="M-3.7-1.85q.85-.8 1.85-1.15-2.3 1.95-2.45 4.85-1.05-2.15.6-3.7m10.55-1.7Q9.5.3 6.4 2.7q1.3-2.75.45-6.25" fill="#ffff7f" fill-rule="evenodd" transform="translate(12.55 7.55)"/><path d="M8.2-2.3q1-.85 2.35-1.15-2.85 2.15-2.7 5.7-1.7-2.8.35-4.55" fill="#ff4900" fill-rule="evenodd" transform="translate(12.55 7.55)"/><path d="m7.35 2.7-16.8.7-1.25-.7.9-.6V.55l2.3.6 1.1-.9 1.65.45 1.1-.9.6 1.35 1.55-1.5.45 1.05L.3-.2l.3.6 1.55-.9.75.75L3.7-1 4.6.4l1.55-.75-1.1 2.3L7.2 1l-.3.75 2.15-.45.9.8-2.6.6" fill="#ffff7f" fill-rule="evenodd" transform="translate(12.55 7.55)"/><path d="m8.75 4.25.95 1.6-3.25-.7-1.05.9-1.7-.45-1.1.95-.6-1.4L.5 6.7 0 5.6l-1.35.95-.3-.65-1.55.95-.75-.8-.75 1.25-.95-1.4-1.5.8.2-1.3-1.45 1.05-.05-1.2-2.35.45.7-.7-.9-.75 2.6-.65 16.8-.7 1.25.7-.9.65" fill="gold" fill-rule="evenodd" transform="translate(12.55 7.55)"/><path d="M1.4 1.35q3.5.2 5.75.9.95.35 1.35 1.35Q-.7 2.05-10 4.75l1.05-1.85q4.6-1.85 10.35-1.55" fill="#a44900" fill-rule="evenodd" transform="translate(12.55 7.55)"/><path d="M8.5 3.6 8.8 5l-11.95-.35-6.7.85q-.25-.2-.15-.75Q-.7 2.05 8.5 3.6" fill="#4b0000" fill-rule="evenodd" transform="translate(12.55 7.55)"/><path d="m3.6 10.45 3.5-1.1q4.45-.95 9.15-.2" fill="none" stroke="#d9933a" stroke-linecap="round" stroke-linejoin="round" stroke-width=".75"/></g></defs></svg>

<?xml version="1.0" encoding="UTF-8" standalone="no"?>
<svg xmlns:xlink="http://www.w3.org/1999/xlink" height="92.9px" width="100.7px" xmlns="http://www.w3.org/2000/svg">
  <g transform="matrix(1.0, 0.0, 0.0, 1.0, 38.65, 49.75)">
    <use height="17.0" transform="matrix(1.0, 0.0, 0.0, 1.0, -12.55, -7.55)" width="25.0" xlink:href="#shape0"/>
  </g>
  <defs>
    <g id="shape0" transform="matrix(1.0, 0.0, 0.0, 1.0, 12.55, 7.55)">
      <path d="M7.95 4.9 Q9.05 4.9 9.9 6.45 L10.8 8.0 Q10.8 8.65 9.8 8.65 L8.25 8.5 6.6 8.55 5.55 8.75 Q4.0 8.75 3.75 8.2 L3.05 8.45 2.7 8.55 2.55 8.7 Q1.75 9.45 1.05 9.45 -0.1 9.45 -0.45 9.1 L-1.35 9.3 -2.75 8.95 -3.9 9.3 -4.65 9.1 -5.85 9.2 Q-7.25 9.2 -7.2 8.5 L-9.1 9.0 Q-10.45 9.0 -10.25 8.25 L-9.5 6.8 -9.5 6.75 -9.6 5.8 -8.85 4.15 -7.7 3.45 -6.55 3.0 -3.5 2.95 3.85 3.45 6.8 4.35 Q7.15 4.4 7.8 4.95 L7.95 4.9 M0.45 5.75 L1.15 6.15 1.6 6.05 1.55 5.65 Q1.55 5.0 2.15 5.0 2.95 5.95 3.4 5.95 L4.35 5.75 Q5.0 5.75 5.2 6.2 L6.4 6.2 6.5 5.7 4.3 4.8 -6.2 4.2 Q-6.65 4.2 -7.35 4.75 L-7.95 5.4 Q-7.1 6.25 -6.5 6.25 -5.9 5.75 -5.4 5.75 -4.8 5.75 -4.6 6.2 L-3.4 6.5 Q-2.9 5.75 -2.35 5.75 L-1.3 6.1 -0.55 5.5 0.1 5.85 0.45 5.75" fill="#0a0100" fill-opacity="0.3137255" fill-rule="evenodd" stroke="none"/>
      <path d="M0.55 -7.55 L1.1 -7.0 1.35 -5.4 1.4 -5.3 Q1.75 -6.55 2.0 -6.9 2.35 -7.4 2.9 -7.15 3.4 -6.95 3.35 -6.4 L3.35 -6.3 3.4 -6.05 3.6 -6.05 3.65 -6.3 Q3.75 -6.8 4.3 -6.9 4.7 -6.65 5.05 -6.45 L6.2 -4.0 6.3 -4.05 Q6.4 -4.45 6.65 -4.5 L6.85 -4.6 6.9 -4.9 6.9 -5.25 Q6.9 -5.8 7.45 -5.95 8.05 -6.15 8.3 -5.6 L9.15 -3.75 9.7 -4.0 9.75 -4.25 9.6 -5.0 Q9.45 -5.2 9.45 -5.45 9.45 -5.8 9.75 -6.05 L10.75 -5.95 10.8 -5.9 10.8 -5.85 Q12.45 -3.8 12.45 -1.8 12.45 0.15 10.85 1.65 L10.2 3.3 10.4 3.6 10.1 4.25 9.75 4.45 10.35 5.5 10.45 5.85 10.3 6.3 Q10.05 6.7 9.55 6.6 L6.65 5.95 5.85 6.65 5.2 6.8 3.9 6.45 3.1 7.1 2.45 7.25 1.95 6.85 1.75 6.45 1.0 7.2 Q0.8 7.5 0.35 7.4 L-0.2 7.0 -0.3 6.75 -0.95 7.15 -1.55 7.25 -1.9 6.95 -2.8 7.5 Q-3.35 7.8 -3.7 7.35 L-3.8 7.25 -4.1 7.7 Q-4.25 8.05 -4.7 8.05 -5.0 7.9 -5.35 7.7 L-5.9 6.9 -6.85 7.35 -7.6 7.3 -7.8 6.95 -8.0 7.05 -8.75 7.1 Q-9.15 6.95 -9.15 6.45 L-9.2 6.15 -10.65 6.45 Q-11.2 6.55 -11.45 6.05 L-11.55 5.7 -11.35 5.2 -11.2 5.05 -11.5 4.8 -11.75 4.25 -11.75 4.05 Q-11.55 3.55 -11.15 3.5 L-10.9 3.45 -11.05 3.35 Q-11.45 3.1 -11.45 2.7 -11.45 2.25 -11.1 2.05 L-10.9 1.9 -11.0 1.45 Q-12.55 -0.1 -12.55 -1.95 -12.55 -3.9 -10.9 -6.0 L-10.85 -6.05 -10.9 -6.05 -10.85 -6.1 -9.8 -6.2 -9.55 -5.6 -9.65 -5.15 Q-9.85 -5.15 -9.85 -4.4 L-9.6 -3.05 -8.4 -5.75 Q-8.15 -6.25 -7.6 -6.05 -7.1 -6.0 -7.0 -5.35 L-6.95 -4.6 -6.2 -4.1 -5.15 -6.3 Q-4.9 -6.75 -4.4 -6.75 -3.85 -6.65 -3.75 -6.15 L-3.45 -6.2 -3.45 -6.3 Q-3.45 -6.8 -3.0 -7.0 -2.35 -7.25 -2.1 -6.75 L-1.55 -5.3 -1.4 -5.65 -1.2 -6.85 Q-1.1 -7.4 -0.65 -7.4 L-0.2 -7.35 0.55 -7.55" fill="#4b0000" fill-rule="evenodd" stroke="none"/>
      <path d="M3.7 -3.15 L4.35 -6.15 6.75 -1.15 Q7.35 -2.25 7.0 -3.9 10.1 -1.15 10.25 0.35 10.35 1.85 9.35 3.25 8.6 3.6 0.45 3.15 L-8.65 2.35 Q-14.25 -0.8 -10.25 -5.6 L-10.6 -4.45 Q-10.6 -2.8 -9.15 -0.4 -9.75 -2.1 -7.75 -5.4 -7.9 -3.4 -5.5 -0.75 L-3.65 -5.4 Q-4.05 -3.65 -1.75 -2.15 -1.9 -4.25 0.35 -6.9 0.85 -3.25 1.5 -1.15 L2.6 -6.5 3.7 -3.15" fill="#e84900" fill-rule="evenodd" stroke="none"/>
      <path d="M-0.45 -6.75 Q1.8 -4.1 1.65 -2.0 3.95 -3.5 3.55 -5.25 4.4 -4.5 5.4 -0.6 7.8 -3.25 7.65 -5.25 9.65 -1.95 9.05 -0.25 11.3 -3.95 10.25 -5.4 14.1 -0.6 8.55 2.5 L-0.55 3.3 Q-8.7 3.75 -9.45 3.4 -10.45 2.0 -10.35 0.5 -10.25 -0.45 -8.65 -2.2 L-7.1 -3.75 Q-7.45 -2.1 -6.85 -1.0 L-4.45 -6.0 -3.8 -3.0 Q-2.55 -5.85 -2.7 -6.35 -2.1 -5.35 -1.6 -1.0 -0.95 -3.1 -0.45 -6.75" fill="#edae00" fill-rule="evenodd" stroke="none"/>
      <path d="M-8.0 -4.25 Q-3.65 -2.7 -4.5 0.95 -5.25 -2.05 -8.0 -4.25" fill="#ff4900" fill-rule="evenodd" stroke="none"/>
      <path d="M0.25 -3.35 Q1.25 -4.25 2.6 -4.55 -0.3 -2.3 -0.15 1.15 -1.8 -1.65 0.25 -3.35" fill="#ff4900" fill-rule="evenodd" stroke="none"/>
      <path d="M-3.7 -1.85 Q-2.85 -2.65 -1.85 -3.0 -4.15 -1.05 -4.3 1.85 -5.35 -0.3 -3.7 -1.85" fill="#ffff7f" fill-rule="evenodd" stroke="none"/>
      <path d="M6.85 -3.55 Q9.5 0.3 6.4 2.7 7.7 -0.05 6.85 -3.55" fill="#ffff7f" fill-rule="evenodd" stroke="none"/>
      <path d="M8.2 -2.3 Q9.2 -3.15 10.55 -3.45 7.7 -1.3 7.85 2.25 6.15 -0.55 8.2 -2.3" fill="#ff4900" fill-rule="evenodd" stroke="none"/>
      <path d="M7.35 2.7 L-9.45 3.4 -10.7 2.7 -9.8 2.1 -9.8 0.55 -7.5 1.15 -6.4 0.25 -4.75 0.7 -3.65 -0.2 -3.05 1.15 -1.5 -0.35 -1.05 0.7 0.3 -0.2 0.6 0.4 2.15 -0.5 2.9 0.25 3.7 -1.0 4.6 0.4 6.15 -0.35 5.05 1.95 7.2 1.0 6.9 1.75 9.05 1.3 9.95 2.1 7.35 2.7" fill="#ffff7f" fill-rule="evenodd" stroke="none"/>
      <path d="M8.75 4.25 L9.7 5.85 6.45 5.15 5.4 6.05 3.7 5.6 2.6 6.55 2.0 5.15 0.5 6.7 0.0 5.6 -1.35 6.55 -1.65 5.9 -3.2 6.85 -3.95 6.05 -4.7 7.3 -5.65 5.9 -7.15 6.7 -6.95 5.4 -8.4 6.45 -8.45 5.25 -10.8 5.7 -10.1 5.0 -11.0 4.25 -8.4 3.6 8.4 2.9 9.65 3.6 8.75 4.25" fill="#ffd700" fill-rule="evenodd" stroke="none"/>
      <path d="M1.4 1.35 Q4.9 1.55 7.15 2.25 8.1 2.6 8.5 3.6 -0.7 2.05 -10.0 4.75 L-8.95 2.9 Q-4.35 1.05 1.4 1.35" fill="#a44900" fill-rule="evenodd" stroke="none"/>
      <path d="M8.5 3.6 L8.8 5.0 -3.15 4.65 -9.85 5.5 Q-10.1 5.3 -10.0 4.75 -0.7 2.05 8.5 3.6" fill="#4b0000" fill-rule="evenodd" stroke="none"/>
      <path d="M-8.95 2.9 L-5.45 1.8 Q-1.0 0.85 3.7 1.6" fill="none" stroke="#d9933a" stroke-linecap="round" stroke-linejoin="round" stroke-width="0.75"/>
    </g>
  </defs>
</svg>
